X:774
L:1/8
M:4/4
K:C
[M:6/8][K:G] .abc E | DEF GB(G | A)EF G2 E | DGA GB(c | d)ec (Bc)d | (e/f/g)(e d)Bd | cBA BGE | 
 DcB AG(A | B)GG G2 :| | B | dBd gd(B | c)AG (FG)A | dBd gdB | d(ef) g2 f | (e/f/g)(e d)BG | 
 cBA BGE | DcB AG(A | B)GG G2 :| | E | DGB cd(e | d)g(e d)BG | c(e/f/g) dBG | EFG A2 d | gfe afd | 
 (e/f/g)(e d)BG | EcB AG(A | B)GG G2 :| | c | BAG AF(D | G)DC (B,A,)G, | G,GF GDB, | A,AA (A2 a) | 
 bgb af(a | g)fe (dB)G | EcB AG(A | B)GG G2 :|

